app/ui/assets/icons/jeopardy-logo.svg

<svg xmlns="http://www.w3.org/2000/svg" xmlns:inkscape="http://www.inkscape.org/namespaces/inkscape" viewBox="0 0 800 226.052" preserveAspectRatio="xMidYMid meet">
    <path style="fill:currentColor;fill-opacity:1;fill-rule:nonzero;stroke:none;stroke-width:1;stroke-linecap:round;stroke-linejoin:round;stroke-miterlimit:4;stroke-dasharray:none;stroke-opacity:1" d="m 54.761161,4.3311678e-4 0,194.04098688322 c 0,3.29025 -2.721819,5.93953 -6.102355,5.93953 l -13.632538,0 c -3.380536,0 -6.102355,-2.64928 -6.102355,-5.93953 l 0,-60.03827 -28.923913,0 0,75.69843 c 0,9.05768 7.3090438,16.35041 16.387991,16.35041 l 52.014057,0 c 9.078947,0 16.387991,-7.29273 16.387991,-16.35041 l 0,-209.70114688322 -30.028878,0 z m 73.418919,0 C 111.6421,4.3311678e-4 98.327944,7.7409959 98.327944,17.355616 l 0,189.829874 c 0,9.61462 7.520756,18.8665 24.058726,18.8665 l 56.22656,0 0,-26.07104 -42.61072,0 c -4.28036,0 -7.7264,-3.45977 -7.7264,-7.75701 l 0,-24.14641 c 0,-4.29724 3.44604,-7.75701 7.7264,-7.75701 l 42.61072,0 0,-25.7788 -42.11251,0 c -4.55643,0 -8.22461,-3.68221 -8.22461,-8.25663 l 0,-25.70504 c 0,-4.574404 3.66818,-8.256616 8.22461,-8.256616 l 42.11251,0 0,-92.32300088322 -50.43315,0 z m 81.5002,0 c -8.70133,0 -15.70609,7.29272978322 -15.70609,16.35041588322 l 0,193.350731 c 0,9.05768 7.00476,16.35041 15.70609,16.35041 l 49.85005,0 c 8.70131,0 15.70748,-7.29273 15.70748,-16.35041 l 0,-193.350731 c 0,-9.0576861 -7.00617,-16.35041588322 -15.70748,-16.35041588322 l -49.85005,0 z m 80.56362,0 0,226.05155688322 29.06586,0 0,-65.13864 32.06068,0 c 11.15559,0 20.13707,-6.95462 20.13707,-15.59475 l 0,-37.38093 0,-1.24413 0,-86.322234 c 0,-11.2854199 -11.72395,-20.37087288322 -26.28675,-20.37087288322 l -54.97686,0 z m 122.55227,0 c -9.61469,0 -17.93715,6.58177598322 -18.65915,14.75837588322 l -18.65776,211.293181 29.05334,0 6.08705,-65.89569 26.13923,0 6.08704,65.89569 31.95631,0 L 452.95482,14.758809 C 452.10941,6.5822091 443.68908,4.3311678e-4 434.07439,4.3311678e-4 l -0.6485,0 -19.9826,0 -0.64712,0 z m 71.36486,0 0,226.05155688322 27.61021,-0.002 0,-66.20603 15.85777,0 c 6.9225,0.52917 12.76904,5.95416 13.27627,12.62916 l 4.07056,53.57826 30.58553,0 -6.38068,-55.93431 c -1.34061,-11.75305 -5.21191,-16.80989 -10.83673,-22.43468 5.31452,-5.31451 8.50851,-7.24724 8.50851,-13.44328 l 0,-4.05663 0,-109.811786 c 0,-11.2854287 -10.95898,-20.37087276322 -24.57224,-20.37087276322 l -58.1192,0 z m 101.97683,0 0,226.05155688322 56.34624,0 c 13.19848,0 23.82354,-9.08544 23.82354,-20.37087 l 0,-185.309814 C 666.30764,9.0858772 655.68258,4.3311678e-4 642.4841,4.3311678e-4 l -56.34624,0 z m 90.6419,0 0,134.21563688322 c 0,13.36735 10.53641,24.1283 23.62453,24.1283 l 31.12412,0 0,36.55987 c 0,2.22028 -2.32097,4.00793 -5.2034,4.00793 -1.87899,1.4e-4 -3.78791,-6e-5 -5.70153,0 -6.69827,2.1e-4 -13.45445,0 -19.18658,0 l 0,27.13982 30.08873,0 4.097,0 c 12.91359,0 23.30999,-7.51286 23.30999,-16.84444 l 0,-209.20711688322 -27.40421,0 0,95.22040288322 c 2.8e-4,0.01452 0,0.02854 0,0.04314 l 0,37.670394 -20.77864,0 c -2.95233,-1e-5 -5.3286,-2.81635 -5.3286,-6.31528 l 0,-126.61865720322 -28.64141,0 z m 96.45616,0 0,158.33281688322 26.76408,0 0,-158.33281688322 -26.76408,0 z M 511.77124,91.256044 l 18.0663,0 c 4.23211,0 7.64012,4.075065 7.64012,9.137526 l 0,23.94183 c 0,5.06248 -3.40801,9.13762 -7.64012,9.13754 l -18.0663,0 0,-42.216896 z m 100.4655,0 19.65974,0 c 4.60538,0 8.31368,4.32649 8.31368,9.701146 l 0,88.25383 c 0,5.37467 -3.7083,9.70123 -8.31368,9.70115 l -19.65974,0 0,-107.656126 z m -189.7436,0.709738 2.39224,0 c 3.08757,0 5.73034,1.68917 5.92422,3.788052 l 3.52504,38.154686 -21.29075,0 3.52503,-38.154686 c 0.19387,-2.098882 2.83665,-3.788052 5.92422,-3.788052 z m -189.76029,0.359044 3.74491,0 c 4.83631,2.5e-4 8.72978,3.472542 8.72978,7.786244 l 0,92.08363 c 0,4.31371 -3.89347,7.78625 -8.72978,7.78625 l -3.74491,0 c -4.83632,0 -8.72978,-3.47254 -8.72978,-7.78625 l 0,-92.08363 c 0,-4.313702 3.89346,-7.786494 8.72978,-7.786244 z m 86.57691,0.462026 17.17147,0 c 3.38676,0 6.1135,3.484514 6.1135,7.811298 l 0,26.13366 c 0,4.32678 -2.72674,7.80991 -6.1135,7.80991 l -17.17147,0 0,-41.754868 z m 453.92616,74.978948 0,25.40028 26.76408,0 0,-25.40028 -26.76408,0 z" id="rect4359" inkscape:connector-curvature="0"/>
</svg>

<svg width="800" height="227" viewBox="0 0 800 227" fill="none" xmlns="http://www.w3.org/2000/svg">
<path d="M54.7612 0.00061188V194.042C54.7612 197.332 52.0393 199.981 48.6588 199.981H35.0263C31.6457 199.981 28.9239 197.332 28.9239 194.042V134.003H0V209.702C0 218.759 7.30904 226.052 16.388 226.052H68.402C77.481 226.052 84.79 218.759 84.79 209.702V0.00061188H54.7612ZM128.18 0.00061188C111.642 0.00061188 98.3279 7.74117 98.3279 17.3558V207.186C98.3279 216.8 105.849 226.052 122.387 226.052H178.613V199.981H136.003C131.722 199.981 128.276 196.521 128.276 192.224V168.078C128.276 163.78 131.722 160.321 136.003 160.321H178.613V134.542H136.501C131.944 134.542 128.276 130.86 128.276 126.285V100.58C128.276 96.0058 131.944 92.3236 136.501 92.3236H178.613V0.00061188H128.18ZM209.68 0.00061188C200.979 0.00061188 193.974 7.29334 193.974 16.351V209.702C193.974 218.759 200.979 226.052 209.68 226.052H259.53C268.232 226.052 275.238 218.759 275.238 209.702V16.351C275.238 7.29334 268.232 0.00061188 259.53 0.00061188H209.68ZM290.244 0.00061188V226.052H319.31V160.914H351.37C362.526 160.914 371.508 153.959 371.508 145.319V107.938V106.694V20.3715C371.508 9.08607 359.784 0.00061188 345.221 0.00061188H290.244ZM412.796 0.00061188C403.181 0.00061188 394.859 6.58239 394.137 14.759L375.479 226.052H404.533L410.62 160.156H436.759L442.846 226.052H474.802L452.955 14.759C452.109 6.58239 443.689 0.00061188 434.074 0.00061188H433.426H413.443H412.796ZM484.161 0.00061188V226.052L511.771 226.05V159.844H527.629C534.552 160.373 540.398 165.798 540.905 172.473L544.976 226.052H575.561L569.181 170.117C567.84 158.364 563.969 153.307 558.344 147.683C563.658 142.368 566.852 140.435 566.852 134.239V130.183V20.3709C566.852 9.08544 555.893 0 542.28 0L484.161 0.00061188ZM586.138 0.00061188V226.052H642.484C655.683 226.052 666.308 216.967 666.308 205.681V20.3715C666.308 9.08606 655.683 0.00061188 642.484 0.00061188H586.138ZM676.78 0.00061188V134.216C676.78 147.584 687.316 158.345 700.404 158.345H731.528V194.904C731.528 197.125 729.207 198.912 726.325 198.912C724.446 198.912 722.537 198.912 720.623 198.912C713.925 198.913 707.169 198.912 701.437 198.912V226.052H731.526H735.623C748.536 226.052 758.933 218.539 758.933 209.208V0.00061188H731.528V95.221C731.529 95.2355 731.528 95.2496 731.528 95.2642V132.935H710.75C707.797 132.935 705.421 130.118 705.421 126.619V0.00061156L676.78 0.00061188ZM773.236 0.00061188V158.333H800V0.00061188H773.236ZM511.771 91.2562H529.838C534.07 91.2562 537.478 95.3313 537.478 100.394V124.336C537.478 129.398 534.07 133.473 529.838 133.473H511.771V91.2562ZM612.237 91.2562H631.896C636.502 91.2562 640.21 95.5827 640.21 100.957V189.211C640.21 194.586 636.502 198.912 631.896 198.912H612.237V91.2562ZM422.493 91.966H424.885C427.973 91.966 430.616 93.6551 430.81 95.754L434.335 133.909H413.044L416.569 95.754C416.763 93.6551 419.406 91.966 422.493 91.966ZM232.733 92.325H236.478C241.314 92.3253 245.208 95.7975 245.208 100.111V192.195C245.208 196.509 241.314 199.981 236.478 199.981H232.733C227.897 199.981 224.003 196.509 224.003 192.195V100.111C224.003 95.7975 227.897 92.3248 232.733 92.325ZM319.31 92.787H336.481C339.868 92.787 342.595 96.2715 342.595 100.598V126.732C342.595 131.059 339.868 134.542 336.481 134.542H319.31V92.787ZM773.236 167.766V193.166H800V167.766H773.236Z" fill="currentColor"/>
</svg>
